app/_assets/images/icons/icn-documentation-ee.svg

<svg height="64" viewBox="0 0 64 64" width="64" xmlns="http://www.w3.org/2000/svg"><g fill="none" fill-rule="evenodd"><path d="m8 2h48v60h-48zm50 2h4v56h-4zm-52 0v56h-4v-56z" fill="#e6eff5"/><path d="m6 2c0-1.1045695.8954305-2 2-2h48c1.1045695 0 2 .8954305 2 2h4c1.1045695 0 2 .8954305 2 2v56c0 1.1045695-.8954305 2-2 2h-4c0 1.1045695-.8954305 2-2 2h-48c-1.1045695 0-2-.8954305-2-2h-4c-1.1045695 0-2-.8954305-2-2v-56c0-1.1045695.8954305-2 2-2zm0 2h-4v56h4zm2-2v2 56 2h48v-2-56-2zm50 2v56h4v-56z" fill="#07c"/><path d="m4 2h2v60h-2zm54 0h2v60h-2z" fill="#000" fill-opacity=".1"/><path d="m13 5h6c.5522847 0 1 .44771525 1 1s-.4477153 1-1 1h-6c-.5522847 0-1-.44771525-1-1s.4477153-1 1-1zm32 0h6c.5522847 0 1 .44771525 1 1s-.4477153 1-1 1h-6c-.5522847 0-1-.44771525-1-1s.4477153-1 1-1zm-16 0h6c.5522847 0 1 .44771525 1 1s-.4477153 1-1 1h-6c-.5522847 0-1-.44771525-1-1s.4477153-1 1-1zm-6 0h2c.5522847 0 1 .44771525 1 1s-.4477153 1-1 1h-2c-.5522847 0-1-.44771525-1-1s.4477153-1 1-1zm16 0h2c.5522847 0 1 .44771525 1 1s-.4477153 1-1 1h-2c-.5522847 0-1-.44771525-1-1s.4477153-1 1-1zm-26 10h6c.5522847 0 1 .4477153 1 1s-.4477153 1-1 1h-6c-.5522847 0-1-.4477153-1-1s.4477153-1 1-1zm32 0h6c.5522847 0 1 .4477153 1 1s-.4477153 1-1 1h-6c-.5522847 0-1-.4477153-1-1s.4477153-1 1-1zm-16 0h6c.5522847 0 1 .4477153 1 1s-.4477153 1-1 1h-6c-.5522847 0-1-.4477153-1-1s.4477153-1 1-1zm-6 0h2c.5522847 0 1 .4477153 1 1s-.4477153 1-1 1h-2c-.5522847 0-1-.4477153-1-1s.4477153-1 1-1zm16 0h2c.5522847 0 1 .4477153 1 1s-.4477153 1-1 1h-2c-.5522847 0-1-.4477153-1-1s.4477153-1 1-1zm-26 37h6c.5522847 0 1 .4477153 1 1s-.4477153 1-1 1h-6c-.5522847 0-1-.4477153-1-1s.4477153-1 1-1zm32 0h6c.5522847 0 1 .4477153 1 1s-.4477153 1-1 1h-6c-.5522847 0-1-.4477153-1-1s.4477153-1 1-1zm-16 0h6c.5522847 0 1 .4477153 1 1s-.4477153 1-1 1h-6c-.5522847 0-1-.4477153-1-1s.4477153-1 1-1zm-6 0h2c.5522847 0 1 .4477153 1 1s-.4477153 1-1 1h-2c-.5522847 0-1-.4477153-1-1s.4477153-1 1-1zm16 0h2c.5522847 0 1 .4477153 1 1s-.4477153 1-1 1h-2c-.5522847 0-1-.4477153-1-1s.4477153-1 1-1zm-1-42h6c.5522847 0 1 .4477153 1 1s-.4477153 1-1 1h-6c-.5522847 0-1-.4477153-1-1s.4477153-1 1-1zm-18 0h6c.5522847 0 1 .4477153 1 1s-.4477153 1-1 1h-6c-.5522847 0-1-.4477153-1-1s.4477153-1 1-1zm-7 0h2c.5522847 0 1 .4477153 1 1s-.4477153 1-1 1h-2c-.5522847 0-1-.4477153-1-1s.4477153-1 1-1zm18 0h2c.5522847 0 1 .4477153 1 1s-.4477153 1-1 1h-2c-.5522847 0-1-.4477153-1-1s.4477153-1 1-1zm18 0h2c.5522847 0 1 .4477153 1 1s-.4477153 1-1 1h-2c-.5522847 0-1-.4477153-1-1s.4477153-1 1-1zm-11 37h6c.5522847 0 1 .4477153 1 1s-.4477153 1-1 1h-6c-.5522847 0-1-.4477153-1-1s.4477153-1 1-1zm-18 0h6c.5522847 0 1 .4477153 1 1s-.4477153 1-1 1h-6c-.5522847 0-1-.4477153-1-1s.4477153-1 1-1zm-7 0h2c.5522847 0 1 .4477153 1 1s-.4477153 1-1 1h-2c-.5522847 0-1-.4477153-1-1s.4477153-1 1-1zm18 0h2c.5522847 0 1 .4477153 1 1s-.4477153 1-1 1h-2c-.5522847 0-1-.4477153-1-1s.4477153-1 1-1zm18 0h2c.5522847 0 1 .4477153 1 1s-.4477153 1-1 1h-2c-.5522847 0-1-.4477153-1-1s.4477153-1 1-1zm-11 10h6c.5522847 0 1 .4477153 1 1s-.4477153 1-1 1h-6c-.5522847 0-1-.4477153-1-1s.4477153-1 1-1zm-18 0h6c.5522847 0 1 .4477153 1 1s-.4477153 1-1 1h-6c-.5522847 0-1-.4477153-1-1s.4477153-1 1-1zm-7 0h2c.5522847 0 1 .4477153 1 1s-.4477153 1-1 1h-2c-.5522847 0-1-.4477153-1-1s.4477153-1 1-1zm18 0h2c.5522847 0 1 .4477153 1 1s-.4477153 1-1 1h-2c-.5522847 0-1-.4477153-1-1s.4477153-1 1-1zm18 0h2c.5522847 0 1 .4477153 1 1s-.4477153 1-1 1h-2c-.5522847 0-1-.4477153-1-1s.4477153-1 1-1z" fill="#3986bd" opacity=".65"/><path d="m6 20h52v24h-52z" fill="#07c"/><path d="m30.56 37.08v1.92h-9.56v-14h9.56v1.92h-7.32v3.86h6.06v1.92h-6.06v4.38zm13.2911112 0v1.92h-9.56v-14h9.56v1.92h-7.32v3.86h6.06v1.92h-6.06v4.38z" fill="#fff"/></g></svg>

<svg width="64px" height="64px" viewBox="0 0 64 64" version="1.1" xmlns="http://www.w3.org/2000/svg" xmlns:xlink="http://www.w3.org/1999/xlink">
    <!-- Generator: Sketch 49 (51002) - http://www.bohemiancoding.com/sketch -->
    <title>icn--CE</title>
    <desc>Created with Sketch.</desc>
    <defs></defs>
    <g id="Page-1" stroke="none" stroke-width="1" fill="none" fill-rule="evenodd">
        <g id="02--EE-landing" transform="translate(-210.000000, -231.000000)">
            <g id="section--hero" transform="translate(0.000000, 111.000000)">
                <g id="page-title" transform="translate(210.000000, 116.000000)">
                    <g id="icn--CE" transform="translate(0.000000, 4.000000)">
                        <path d="M8,2 L56,2 L56,62 L8,62 L8,2 Z M58,4 L62,4 L62,60 L58,60 L58,4 Z M6,4 L6,60 L2,60 L2,4 L6,4 Z" id="fills" fill="#E6EFF5"></path>
                        <path d="M6,2 C6,0.8954305 6.8954305,-6.90252123e-15 8,-7.10542736e-15 L56,-7.10542736e-15 C57.1045695,-1.12325527e-14 58,0.8954305 58,2 L62,2 C63.1045695,2 64,2.8954305 64,4 L64,60 C64,61.1045695 63.1045695,62 62,62 L58,62 C58,63.1045695 57.1045695,64 56,64 L8,64 C6.8954305,64 6,63.1045695 6,62 L2,62 C0.8954305,62 -1.77635684e-15,61.1045695 -1.77635684e-15,60 L-1.77635684e-15,4 C-1.77635684e-15,2.8954305 0.8954305,2 2,2 L6,2 Z M6,4 L2,4 L2,60 L6,60 L6,4 Z M8,2 L8,4 L8,60 L8,62 L56,62 L56,60 L56,4 L56,2 L8,2 Z M58,4 L58,60 L62,60 L62,4 L58,4 Z" id="borders" fill="#0077CC"></path>
                        <path d="M4,2 L6,2 L6,62 L4,62 L4,2 Z M58,2 L60,2 L60,62 L58,62 L58,2 Z" id="shadows" fill-opacity="0.1" fill="#000000"></path>
                        <path d="M13,5 L19,5 C19.5522847,5 20,5.44771525 20,6 C20,6.55228475 19.5522847,7 19,7 L13,7 C12.4477153,7 12,6.55228475 12,6 C12,5.44771525 12.4477153,5 13,5 Z M45,5 L51,5 C51.5522847,5 52,5.44771525 52,6 C52,6.55228475 51.5522847,7 51,7 L45,7 C44.4477153,7 44,6.55228475 44,6 C44,5.44771525 44.4477153,5 45,5 Z M29,5 L35,5 C35.5522847,5 36,5.44771525 36,6 C36,6.55228475 35.5522847,7 35,7 L29,7 C28.4477153,7 28,6.55228475 28,6 C28,5.44771525 28.4477153,5 29,5 Z M23,5 L25,5 C25.5522847,5 26,5.44771525 26,6 C26,6.55228475 25.5522847,7 25,7 L23,7 C22.4477153,7 22,6.55228475 22,6 C22,5.44771525 22.4477153,5 23,5 Z M39,5 L41,5 C41.5522847,5 42,5.44771525 42,6 C42,6.55228475 41.5522847,7 41,7 L39,7 C38.4477153,7 38,6.55228475 38,6 C38,5.44771525 38.4477153,5 39,5 Z M13,15 L19,15 C19.5522847,15 20,15.4477153 20,16 C20,16.5522847 19.5522847,17 19,17 L13,17 C12.4477153,17 12,16.5522847 12,16 C12,15.4477153 12.4477153,15 13,15 Z M45,15 L51,15 C51.5522847,15 52,15.4477153 52,16 C52,16.5522847 51.5522847,17 51,17 L45,17 C44.4477153,17 44,16.5522847 44,16 C44,15.4477153 44.4477153,15 45,15 Z M29,15 L35,15 C35.5522847,15 36,15.4477153 36,16 C36,16.5522847 35.5522847,17 35,17 L29,17 C28.4477153,17 28,16.5522847 28,16 C28,15.4477153 28.4477153,15 29,15 Z M23,15 L25,15 C25.5522847,15 26,15.4477153 26,16 C26,16.5522847 25.5522847,17 25,17 L23,17 C22.4477153,17 22,16.5522847 22,16 C22,15.4477153 22.4477153,15 23,15 Z M39,15 L41,15 C41.5522847,15 42,15.4477153 42,16 C42,16.5522847 41.5522847,17 41,17 L39,17 C38.4477153,17 38,16.5522847 38,16 C38,15.4477153 38.4477153,15 39,15 Z M13,52 L19,52 C19.5522847,52 20,52.4477153 20,53 C20,53.5522847 19.5522847,54 19,54 L13,54 C12.4477153,54 12,53.5522847 12,53 C12,52.4477153 12.4477153,52 13,52 Z M45,52 L51,52 C51.5522847,52 52,52.4477153 52,53 C52,53.5522847 51.5522847,54 51,54 L45,54 C44.4477153,54 44,53.5522847 44,53 C44,52.4477153 44.4477153,52 45,52 Z M29,52 L35,52 C35.5522847,52 36,52.4477153 36,53 C36,53.5522847 35.5522847,54 35,54 L29,54 C28.4477153,54 28,53.5522847 28,53 C28,52.4477153 28.4477153,52 29,52 Z M23,52 L25,52 C25.5522847,52 26,52.4477153 26,53 C26,53.5522847 25.5522847,54 25,54 L23,54 C22.4477153,54 22,53.5522847 22,53 C22,52.4477153 22.4477153,52 23,52 Z M39,52 L41,52 C41.5522847,52 42,52.4477153 42,53 C42,53.5522847 41.5522847,54 41,54 L39,54 C38.4477153,54 38,53.5522847 38,53 C38,52.4477153 38.4477153,52 39,52 Z M38,10 L44,10 C44.5522847,10 45,10.4477153 45,11 C45,11.5522847 44.5522847,12 44,12 L38,12 C37.4477153,12 37,11.5522847 37,11 C37,10.4477153 37.4477153,10 38,10 Z M20,10 L26,10 C26.5522847,10 27,10.4477153 27,11 C27,11.5522847 26.5522847,12 26,12 L20,12 C19.4477153,12 19,11.5522847 19,11 C19,10.4477153 19.4477153,10 20,10 Z M13,10 L15,10 C15.5522847,10 16,10.4477153 16,11 C16,11.5522847 15.5522847,12 15,12 L13,12 C12.4477153,12 12,11.5522847 12,11 C12,10.4477153 12.4477153,10 13,10 Z M31,10 L33,10 C33.5522847,10 34,10.4477153 34,11 C34,11.5522847 33.5522847,12 33,12 L31,12 C30.4477153,12 30,11.5522847 30,11 C30,10.4477153 30.4477153,10 31,10 Z M49,10 L51,10 C51.5522847,10 52,10.4477153 52,11 C52,11.5522847 51.5522847,12 51,12 L49,12 C48.4477153,12 48,11.5522847 48,11 C48,10.4477153 48.4477153,10 49,10 Z M38,47 L44,47 C44.5522847,47 45,47.4477153 45,48 C45,48.5522847 44.5522847,49 44,49 L38,49 C37.4477153,49 37,48.5522847 37,48 C37,47.4477153 37.4477153,47 38,47 Z M20,47 L26,47 C26.5522847,47 27,47.4477153 27,48 C27,48.5522847 26.5522847,49 26,49 L20,49 C19.4477153,49 19,48.5522847 19,48 C19,47.4477153 19.4477153,47 20,47 Z M13,47 L15,47 C15.5522847,47 16,47.4477153 16,48 C16,48.5522847 15.5522847,49 15,49 L13,49 C12.4477153,49 12,48.5522847 12,48 C12,47.4477153 12.4477153,47 13,47 Z M31,47 L33,47 C33.5522847,47 34,47.4477153 34,48 C34,48.5522847 33.5522847,49 33,49 L31,49 C30.4477153,49 30,48.5522847 30,48 C30,47.4477153 30.4477153,47 31,47 Z M49,47 L51,47 C51.5522847,47 52,47.4477153 52,48 C52,48.5522847 51.5522847,49 51,49 L49,49 C48.4477153,49 48,48.5522847 48,48 C48,47.4477153 48.4477153,47 49,47 Z M38,57 L44,57 C44.5522847,57 45,57.4477153 45,58 C45,58.5522847 44.5522847,59 44,59 L38,59 C37.4477153,59 37,58.5522847 37,58 C37,57.4477153 37.4477153,57 38,57 Z M20,57 L26,57 C26.5522847,57 27,57.4477153 27,58 C27,58.5522847 26.5522847,59 26,59 L20,59 C19.4477153,59 19,58.5522847 19,58 C19,57.4477153 19.4477153,57 20,57 Z M13,57 L15,57 C15.5522847,57 16,57.4477153 16,58 C16,58.5522847 15.5522847,59 15,59 L13,59 C12.4477153,59 12,58.5522847 12,58 C12,57.4477153 12.4477153,57 13,57 Z M31,57 L33,57 C33.5522847,57 34,57.4477153 34,58 C34,58.5522847 33.5522847,59 33,59 L31,59 C30.4477153,59 30,58.5522847 30,58 C30,57.4477153 30.4477153,57 31,57 Z M49,57 L51,57 C51.5522847,57 52,57.4477153 52,58 C52,58.5522847 51.5522847,59 51,59 L49,59 C48.4477153,59 48,58.5522847 48,58 C48,57.4477153 48.4477153,57 49,57 Z" id="text" fill="#3986BD" opacity="0.649999976"></path>
                        <rect id="bg" fill="#0077CC" x="6" y="20" width="52" height="24"></rect>
                        <path d="M30.56,37.08 L30.56,39 L21,39 L21,25 L30.56,25 L30.56,26.92 L23.24,26.92 L23.24,30.78 L29.3,30.78 L29.3,32.7 L23.24,32.7 L23.24,37.08 L30.56,37.08 Z M43.8511112,37.08 L43.8511112,39 L34.2911112,39 L34.2911112,25 L43.8511112,25 L43.8511112,26.92 L36.5311112,26.92 L36.5311112,30.78 L42.5911112,30.78 L42.5911112,32.7 L36.5311112,32.7 L36.5311112,37.08 L43.8511112,37.08 Z" id="EE" fill="#FFFFFF"></path>
                    </g>
                </g>
            </g>
        </g>
    </g>
</svg>
